X:1
T:[ID 7-169]
T:[ID 7-169]
T:Bezeichnung standardisiert: Walzer Waltzer
T:Urheber unbekannt Datum in der hier transkribierten schriftlichen Quelle: 1776 - 1791
C:Urheber unbekannt
C:Datum in der hier transkribierten schriftlichen Quelle: 1776 - 1791
L:1/8
M:3/4
K:F
V:1 treble 
V:1
 F2 | F4 Ac | f4 af | bgbgec | a2 f2 F2 | F4 Ac | f4 af | bgbgec | f4 :: c2 | c2 A2 c2 | c2 A2 f2 | %12
 g2 gabg | a2 f2 c2 | c2 A2 c2 | c2 A2 f2 | g2 gfeg | f4 :: AB | cdcBAG | FEFGAB | afafbg | %22
 a2 f2 AB | cdcBAG | FEFGAB | afafge | f4 :: C2 | A,A, A,2 C2 | A,A, A,2 C2 | A,A, A,2 C2 | %31
 G,4 C2 | A,A, A,2 C2 | B,B, B,2 C2 | A,2 F2 E2 | F4 ::"^B" x6 | !fermata!DDFA c fa | bgecdA | %39
 (3BAG F2 E2 |{E} D6 :| %41

